images/checkbox-checked-zwart.svg

<svg height="16" viewBox="0 0 16 16" width="16" xmlns="http://www.w3.org/2000/svg"><g fill-rule="evenodd"><path d="m0 0v16h16v-16zm15 15h-14v-14h14z"/><path d="m7.3 13.9-6.3-5.9 1.6-1.2 3.6 2.7c2.7433651-2.95307455 5.9114932-5.48083635 9.4-7.5l.4.8c-3.6259764 3.06860712-6.58655416 6.84589593-8.7 11.1z"/></g></svg>

<?xml version="1.0" encoding="UTF-8" standalone="no"?>
<svg width="16px" height="16px" viewBox="0 0 16 16" version="1.1" xmlns="http://www.w3.org/2000/svg" xmlns:xlink="http://www.w3.org/1999/xlink">
    <!-- Generator: Sketch 3.6.1 (26313) - http://www.bohemiancoding.com/sketch -->
    <title>checkbox-checked-zwart</title>
    <desc>Created with Sketch.</desc>
    <defs></defs>
    <g id="Page-1" stroke="none" stroke-width="1" fill="none" fill-rule="evenodd">
        <g id="checkbox-checked-zwart" fill="#000000">
            <path d="M0,0 L0,16 L16,16 L16,0 L0,0 L0,0 Z M15,15 L1,15 L1,1 L15,1 L15,15 L15,15 Z" id="Shape"></path>
            <path d="M7.3,13.9 L1,8 L2.6,6.8 L6.2,9.5 C8.9433651,6.54692545 12.1114932,4.01916365 15.6,2 L16,2.8 C12.3740236,5.86860712 9.41344584,9.64589593 7.3,13.9 L7.3,13.9 Z" id="Path"></path>
        </g>
    </g>
</svg>
